storage/app/icons/phosphoricons/light/volleyball-light.svg

<svg xmlns="http://www.w3.org/2000/svg" fill="currentColor" viewBox="0 0 256 256"><path d="M128 26a102 102 0 1 0 102 102A102.12 102.12 0 0 0 128 26m83.37 135.89a90 90 0 0 1-97.85 3.18L131.46 134h86.34a89.5 89.5 0 0 1-6.43 27.89M88.3 47.24a89.5 89.5 0 0 1 27.35-8.39A90 90 0 0 1 167.34 122h-35.88ZM217.8 122h-38.46a102.12 102.12 0 0 0-40.84-83.38A90.15 90.15 0 0 1 217.8 122M77.92 53.26l19.21 33.27a102.16 102.16 0 0 0-51.79 77.06A89.93 89.93 0 0 1 77.92 53.26M57 183.19a90 90 0 0 1 46.17-86.26l17.9 31.07-43.15 74.74A90.6 90.6 0 0 1 57 183.19M128 218a89.5 89.5 0 0 1-39.7-9.24l19.22-33.29a102.13 102.13 0 0 0 92.58 6.34A89.91 89.91 0 0 1 128 218"/></svg>

<svg xmlns="http://www.w3.org/2000/svg" viewBox="0 0 256 256" fill="currentColor"><path d="M128,26A102,102,0,1,0,230,128,102.12,102.12,0,0,0,128,26Zm83.37,135.89a90,90,0,0,1-97.85,3.18L131.46,134H217.8A89.49,89.49,0,0,1,211.37,161.89ZM88.3,47.24a89.54,89.54,0,0,1,27.35-8.39A90,90,0,0,1,167.34,122H131.46ZM217.8,122H179.34A102.12,102.12,0,0,0,138.5,38.62,90.15,90.15,0,0,1,217.8,122ZM77.92,53.26,97.13,86.53a102.16,102.16,0,0,0-51.79,77.06A89.93,89.93,0,0,1,77.92,53.26ZM57,183.19a90,90,0,0,1,46.17-86.26L121.07,128,77.92,202.74A90.59,90.59,0,0,1,57,183.19ZM128,218a89.5,89.5,0,0,1-39.7-9.24l19.22-33.29a102.13,102.13,0,0,0,92.58,6.34A89.91,89.91,0,0,1,128,218Z"/></svg>
